X:79
T:Learned Men. HSJJ.081
M:2/4
L:1/8
Q:1/4=150
S:HSJ Jackson,Wyresdale,Lancs.1823
R:.Country Dance
O:England
A:Lancashire
H:1823
Z:vmp.Chris Partington.
K:D
FAd2|FAd2|cdec|fddA|FAd2|FAd2|cdec|d2z2|!
|eedc|eedc|ddcB|ABcd|eedc|eedc|BcdB|A3″ DC”G|]

